!!!!SEGMENT: pl-sa--268-a-vii-28--003_siwinski-andrzej--salve-o-purerpera-templum-trinitatis.krn
!!!cenid: 17xx:315
!!!COM: Siwiński, Andrzej
!!!COM-rismID: pe41011487
!!!CDT: <1725->1725
!!!CNT:
!!!OTL: Salve o purerpera templum Trinitatis
!!!PDT: 1729
!!!AGN: Sacred
!!!SMS-siglum: PL-SA
!!!SMS-shelfmark: 268/A VII 28
!!!SMS-shelfwork: 003 W
!!!NIFC-rismSourceID: 1001069565
!!!NIFC-rismChildID: 1001069565
!!!NIFC-islandoraID: none
!!!URL-pdf-islandora:
!!!URL-scan: https://bc.bdsandomierz.pl/dlibra/publication/1751/edition/1719/content @EN{Scan in the Sandomierz Diocese Digital Library} @PL{Skany w portalu Cyfrowa Biblioteka Diecezjalna w Sandomierzu}
!!!ONB-nifc:
!!!AIN: 1 alto 1 bass 1 organ 1 soprn 1 tenor 2 violn
!!!key: G
**kern	**fba	**kern	**kern	**kern	**text	**kern	**text	**kern	**text	**kern	**text
*	*	*group2	*group2	*group1	*	*group1	*	*group1	*	*group1	*
*part7	*part7	*part6	*part5	*part4	*part4	*part3	*part3	*part2	*part2	*part1	*part1
*staff7	*staff7	*staff6	*staff5	*staff4	*staff4	*staff3	*staff3	*staff2	*staff2	*staff1	*staff1
*I"Baſso & Organo	*	*I"Violino 2do	*I"Violino 1mo	*I"Baſso	*	*I"Tenore	*	*I"Alto	*	*I"Canto	*
*mI"Organo	*	*mI"Violino II	*mI"Violino I	*mI"Basso	*	*	*	*	*	*mI"Soprano	*
*I'org	*	*I'vl 2	*I'vl 1	*I'B	*	*I'T	*	*I'A	*	*I'S	*
*Iorgan	*	*Ivioln	*Ivioln	*Ibass	*	*Itenor	*	*Ialto	*	*Isoprn	*
*ICklav	*	*ICstr	*ICstr	*ICvox	*	*ICvox	*	*ICvox	*	*ICvox	*
*IGcont	*	*	*	*IGcoro	*	*IGcoro	*	*IGcoro	*	*IGcoro	*
*clefF4	*	*clefG2	*clefG2	*clefF4	*	*clefC4	*	*clefC3	*	*clefC1	*
*	*	*	*	*	*	*mclefGv2	*	*mclefG2	*	*mclefG2	*
*k[f#]	*	*k[f#c#]	*k[f#c#]	*k[]	*	*k[f#]	*	*k[f#c#]	*	*k[f#c#]	*
*	*	*mk[f#]	*mk[f#]	*mk[f#]	*	*	*	*mk[f#]	*	*mk[f#]	*
*G:	*	*G:	*G:	*G:	*	*G:	*	*G:	*	*G:	*
*M2/2	*	*M2/2	*M2/2	*M2/2	*	*M2/2	*	*M2/2	*	*M2/2	*
*met(c)	*	*met(C.)	*met(C.)	*met(c|)	*	*met(C.)	*	*met(c)	*	*met(C.)	*
*mmet(c|)	*	*mmet(c|)	*mmet(c|)	*mmet(c|)	*	*mmet(c|)	*	*mmet(c|)	*	*mmet(c|)	*
*	*	*	*all\right	*	*	*all\right	*	*	*	*all\right	*
=1	=1	=1	=1	=1	=1	=1	=1	=1	=1	=1	=1
!	!	!LO:TX:a:Bi:t=Solo:rj:mod=	!LO:TX:a:i:t=Solo:mod=	!	!	!	!	!	!	!	!
!LO:TX:a:i:t=Solo:mod=	!	!	!LO:TX:t=P:problem=mixed beam	!	!	!	!	!	!	!	!
!LO:TX:t=P:problem=przy kluczu F# FF#	!	!LO:TX:t=P:problem=przy kluczu błędnie f#c#	!LO:TX:t=P:problem=przy kluczu błędnie f#c#	!LO:TX:t=P:problem=brak znaków przykluczowych	!	!	!	!LO:TX:t=P:problem=przy kluczu błędnie f#c#	!	!LO:TX:t=P:problem=przy kluczu błędnie f#c#	!
4GG/	.	4b/	8gg\L	0r	.	0r	.	0r	.	1r	.
.	.	.	8g/	.	.	.	.	.	.	.	.
8r	.	8r	8gg\	.	.	.	.	.	.	.	.
8BB/	.	8b/	8g/J	.	.	.	.	.	.	.	.
!	!	!LO:SIC:s=8ccL	!	!	!	!	!	!	!	!	!
4C/	.	8dd\L	16ee\LL	.	.	.	.	.	.	.	.
.	.	.	16dd\	.	.	.	.	.	.	.	.
.	.	8a\	16ee\	.	.	.	.	.	.	.	.
.	.	.	16ff#\JJ	.	.	.	.	.	.	.	.
8r	.	8b\	8gg\L	.	.	.	.	.	.	.	.
8G\	.	8g\J	8g\J	.	.	.	.	.	.	.	.
=2	=2	=2	=2	=2	=2	=2	=2	=2	=2	=2	=2
!	!	!	!LO:SIC:s=8ccL	!	!	!	!	!	!	!	!
4A\	6	4a/	8cc#\L	.	.	.	.	.	.	2r	.
.	.	.	8ee\	.	.	.	.	.	.	.	.
8r	.	8r	8a\	.	.	.	.	.	.	.	.
8F#\	6	8a/	8dd\J	.	.	.	.	.	.	.	.
!	!	!	!	!	!	!	!	!	!	!	!LO:MO:mod=Sal-
!!LO:TX:a:t= :mod=Tutti
8G\L	.	4g/	4b\	.	.	.	.	.	.	4g\	ſal-
!LO:TX:a:Bi:t=Tutti:mod=	!	!	!	!	!	!	!	!	!	!	!
8A\	.	.	.	.	.	.	.	.	.	.	.
8B\	.	4r	4r	.	.	.	.	.	.	8g\	-ve
8G\J	.	.	.	.	.	.	.	.	.	8g\	o
=3	=3	=3	=3	=3	=3	=3	=3	=3	=3	=3	=3
!	!	!	!	!	!LO:MO:mod=Sal-	!	!LO:MO:mod=Sal-	!	!LO:MO:mod=Sal-	!	!
8F#\L	.	4f#/	4a/	4D/	ſal-	4A\	ſal-	4f#\	ſal-	8dd\	ſal-
8E\	.	.	.	.	.	.	.	.	.	8dd\	-ve
8F#\	.	8f#/L	8a/L	8D/	-ve	8A\	-ve	8f#\	-ve	8dd\	o
8D\J	.	8f#/J	8a/J	8D/	o	8A\	o	8f#\	o	8dd\	pu-
!	!	!	!	!	!	!	!	!	!	!	!LO:MO:mod=-er-
8GG/L	.	4b\	4dd\	8G\	ſal-	8B\	sal-	8g\	sal-	8.b\	-rer-
8AA/	.	.	.	8G\	-ve	8B\	-ve	8a\	-ve	.	.
.	.	.	.	.	.	.	.	.	.	16a\	-pe-
!	!	!	!	!	!	!	!	!	!	!	!LO:MO:mod=-ra
8BB/	.	8b\L	8dd\L	8G\	o	8B\	o	8b\	o	4g/	-ra.
8C/J	.	8b\J	8dd\J	8G\	pu-	8c#X\	pu-	8g\	pu-	.	.
=4	=4	=4	=4	=4	=4	=4	=4	=4	=4	=4	=4
8D\L	.	8.f#/L	8.a/L	8.F#\	-er-	8.d\	-er-	8.a\	-er-	2r	.
8E\	.	.	.	.	.	.	.	.	.	.	.
.	.	16f#/Jk	16a/Jk	16E\	-pe-	16d\	-pe-	16a\	-pe-	.	.
8F#\	.	4f#/	4a/	4D\	-ra	4d\	-ra	4a\	-ra	.	.
8D\J	.	.	.	.	.	.	.	.	.	.	.
!	!	!LO:TX:a:t=raz:mod=	!	!	!	!	!	!	!	!	!
!	!	!LO:MO:mod=!null:null	!	!	!	!	!	!	!	!	!
!LO:TX:t=P:problem=mixed beam	!	!LO:N:vis=16	!	!	!LO:MO:mod=tem-	!	!	!	!LO:MO:mod=tem-	!	!LO:MO:mod=tem-
8F#\L	6	8a/L	8dd\L	8F#\	te(m)-	8F#/	tem-	8d\	Tem-	8a\	Tem-
!	!	!LO:MO:mod=!null:null	!	!	!	!	!	!	!	!	!
!	!	!LO:N:vis=16	!	!	!LO:MO:mod=-plum	!	!LO:MO:mod=-plum	!	!LO:MO:mod=-plum	!	!LO:MO:mod=-plum
8G\	5	8b/	8dd\	8G\	-plu(m)	8B\	-plu(m)	8d\	-plu(m)	8b\	-plu(m)
!	!	!LO:TX:t=P:problem=# below	!	!	!	!	!	!	!	!	!
!	!	!LO:MO:mod=!null:null	!	!	!	!	!	!	!	!	!
!	!	!LO:N:vis=16	!	!	!LO:MO:mod=Tri-	!	!LO:MO:mod=Tri-	!	!LO:MO:mod=Tri-	!	!
8A\	.	8cc#X/	8ee\	8A\	tri-	8A\	Tri-	8e\	tri-	8a\	Tri-
!	!	!LO:MO:mod=!null:null	!	!	!	!	!	!	!	!	!
!	!	!LO:N:vis=16	!	!	!	!	!	!	!	!	!
8AA/J	4	8dd/J	8ee\J	8AA/	-ni-	8A\	-ni-	8e\	-ni-	8g\	-ni-
.	3	.	.	.	.	.	.	.	.	.	.
!LO:LB:g=original	!	!	!	!	!	!	!	!	!	!	!
=5	=5	=5	=5	=5	=5	=5	=5	=5	=5	=5	=5
4D/	.	4dd\	4ff#\	8D/	-ta-	8A\	-ta-	8d\	-ta-	8f#/	-ta-
.	.	.	.	8D/	-tis	8A\	-tis	8d\	-tis	8f#/	-tis
8d\L	.	4r	4r	8d\	an-	8d\	an-	8f#\	an-	8a\	an-
8c#X\J	6	.	.	8c#X\	-ge-	8A\	-ge-	8e\	-ge-	8a\	-ge-
8d\L	.	4r	4r	8d\	-lo-	8d\	-lo-	8f#\	-lo-	8a\	-lo-
!	!	!	!	!LO:SIC:s=8A	!LO:MO:mod=-rum	!	!LO:MO:mod=-rum	!	!	!	!
8A\J	.	.	.	8B\	-ru(m)	8c#X\	-ru(m)	8e\	-rum	8a\	-rum
8D/L	.	8dd\L	8ff#\L	4r	.	4r	.	4r	.	4r	.
8C#X/J	6	8a\J	8ee\J	.	.	.	.	.	.	.	.
!	!	!	!	!	!	!LO:PB:g=original	!	!LO:PB:g=original	!	!LO:LB:g=original	!
=6	=6	=6	=6	=6	=6	=6	=6	=6	=6	=6	=6
!	!	!	!	!LO:MO:mod=*null:null	!	!	!	!	!	!LO:MO:mod=*null:null	!
*	*	*	*	*k[f#c#]	*	*	*	*	*	*k[f#]	*
!	!	!	!	!LO:TX:t=P:problem:przy kluczu błędnie f#c#	!	!	!	!	!	!	!
8D/L	.	8dd\L	8ff#\L	4r	.	4r	.	4r	.	4r	.
8AA/J	.	8cc#X\J	8ee\J	.	.	.	.	.	.	.	.
8d\L	.	4r	4r	8d\	an-	8d\	an-	8f#\	an-	8a\	an-
8c#X\J	6	.	.	8c#X\	-ge-	8A\	-ge-	8e\	-ge-	8a\	-ge-
!	!	!	!	!LO:LB:g-original	!	!	!	!	!	!	!
8d\L	.	4r	4r	8d\	-lo-	8d\	-lo-	8f#\	-lo-	8a\	-lo-
!	!	!	!	!	!LO:MO:mod=-rum	!	!LO:MO:mod=-rum	!	!	!	!LO:MO:mod=-rum
8A\J	.	.	.	8A\	-ru(m)	8c#X\	-ru(m)	8e\	-rum	8a\	-ru(m)
8D/L	.	8dd\L	8ff#\L	4r	.	4r	.	4r	.	4r	.
8C#X/J	6	8a\J	8ee\J	.	.	.	.	.	.	.	.
=7	=7	=7	=7	=7	=7	=7	=7	=7	=7	=7	=7
8D/L	.	8dd\L	8ff#\L	4r	.	4r	.	4r	.	4r	.
8AA/J	.	8cc#\J	8ee\J	.	.	.	.	.	.	.	.
*	*	*	*	*	*	*	*	*	*ij	*	*
8D\L	.	8a/L	8ff#\L	8D\	an-	8F#/	an-	8d\	an-	8a\	an-
8E\	.	8g/J	8ee\J	8E\	-ge-	8G/	-ge-	8c#\	-ge-	8g\	-ge-
!	!	!LO:LB:g=original	!	!	!	!	!	!	!	!	!
8F#\	.	8f#/L	8dd\L	8F#\	-lo-	8A\	-lo-	8d\	-lo-	8f#/	-lo-
!	!	!	!	!	!LO:MO:mod=-rum	!	!LO:MO:mod=-rum	!	!	!	!LO:MO:mod=-rum
8G\J	.	8g/J	8ee\J	8G\	-ru(m)	8B\	-ru(m)	8e,\	-rum	8a\	-ru(m)
*	*	*	*	*	*	*	*	*	*Xij	*	*
!LO:TX:t=P:problem=mixed beam	!	!	!	!	!	!	!	!	!	!	!
8A\L	.	4e/	8.cc#X\L	8.A\	gau-	8.A\	gau-	8.c#\	gau-	8.g/	gau-
8AA/J	4	.	.	.	.	.	.	.	.	.	.
.	3	.	16cc#\Jk	16A\	-di-	16A\	-di-	16c#\	-di-	16g/	-di-
=8	=8	=8	=8	=8	=8	=8	=8	=8	=8	=8	=8
4D/	.	4f#/	4dd\	4D/	-um	4A/	-um	4d,\	-um	4f#/	-um
8G\L	.	4r	4r	8G\	an-	8d\	an-	8g\	an-	8b\	an-
8F#\J	6	.	.	8F#\	-ge-	8d\	-ge-	8a\	-ge-	8a\	-ge-
8G\L	.	4r	4r	8G\	-lo-	8d\	-lo-	8g\	-lo-	8b\	-lo-
!	!	!	!	!	!LO:MO:mod=-rum	!	!LO:MO:mod=-rum	!	!	!	!LO:MO:mod=-rum
8D\	.	.	.	8D/	-ru(m)	8d\	-ru(m)	8f#\	-rum	8a\	-ru(m)
!	!	!	!LO:LB:g=original	!	!	!	!	!	!	!	!
8G\	.	8gg\L	8bb\L	4r	.	4r	.	4r	.	4r	.
8F#\J	6	8dd\J	8aa\J	.	.	.	.	.	.	.	.
!	!	!	!	!	!	!	!	!LO:LB:g=original	!	!	!
=9	=9	=9	=9	=9	=9	=9	=9	=9	=9	=9	=9
8G\L	.	8gg\L	8bb\L	4r	.	4r	.	4r	.	4r	.
8D\	.	8ff#\J	8aa\J	.	.	.	.	.	.	.	.
*	*	*	*	*	*	*	*ij	*	*ij	*	*ij
8G\	.	4r	4r	8G\	an-	8d\	an-	8g\	an-	8b\	an-
8F#\J	6	.	.	8F#\	-ge-	8d\	-ge-	8a\	-ge-	8a\	-ge-
!LO:LB:g=original	!	!	!	!	!	!	!	!	!	!	!
8G\L	.	4r	4r	8G\	-lo-	8d\	-lo-	8g\	-lo-	8b\	-lo-
8D\	.	.	.	8D/	-rum	8d\	-rum	8f#\	-rum	8a\	-rum
*	*	*	*	*	*	*	*Xij	*	*Xij	*	*Xij
8G\	.	8gg\L	8bb\L	4r	.	4r	.	4r	.	4r	.
8F#\J	.	8dd\J	8aa\J	.	.	.	.	.	.	.	.
!	!	!	!	!	!	!LO:LB:g=original	!	!	!	!	!
=10	=10	=10	=10	=10	=10	=10	=10	=10	=10	=10	=10
8G\L	.	8gg\L	8bb\L	4r	.	4r	.	4r	.	4r	.
8D\J	.	8ff#\J	8aa\J	.	.	.	.	.	.	.	.
!	!	!	!	!LO:LB:g=original	!	!	!LO:MO:mod=cel-	!	!LO:MO:mod=cel-	!	!LO:MO:mod=cel-
8GG/L	.	8gg\L	8bb\L	8GG/	ce-	8B\	Cel-	8g\	Cel-	8dd\	Cel-
!	!	!LO:SIC:s=8ccJ	!	!	!	!	!	!	!	!	!
8AA/	.	8cc#\J	8aa\J	8AA/	-la	8c\	-la	8f#\	-la	8cc\	-la
*	*	*	*	*	*	*	*	*	*	*custos:b	*
!	!	!	!	!	!	!	!	!	!	!LO:LB:g=original	!
8BB/	.	8b\L	8gg\L	8BB/	pu-	8d\	pu-	8g\	pu-	8b\	pu-
!	!	!LO:SIC:s=8ccJ	!	!LO:SIC:s=8C	!	!	!	!	!	!	!
8C/J	.	8cc#\J	8aa\J	8C#/	-ri-	8e\	-ri-	8a\	-ri-	8cc\	-ri-
4D/	4	4a/	4ff#\	4D/	-ta-	4d\	-ta-	4f#\	-ta-	4a\	-ta-
.	3	.	.	.	.	.	.	.	.	.	.
=11	=11	=11	=11	=11	=11	=11	=11	=11	=11	=11	=11
4GG/	.	4b\	4gg\	4GG/	-tis	4B\	-tis	4g,\	-tis	4g/	-tis
*	*	*	*	*	*ij	*	*	*	*ij	*	*
!	!	!	!	!	!	!	!LO:MO:mod=cel-	!	!LO:MO:mod=cel-	!	!LO:MO:mod=cel-
8GG/L	.	8gg\L	8bb\L	8GG/	ce-	8B\	Cel-	8g\	Cel-	8dd\	Cel-
!	!	!LO:SIC:s=8ccJ	!	!	!	!	!	!	!	!	!
8AA/	6	8cc#\J	8aa\	8AA/	-la	8c\	-la	8f#\	-la	8cc\	-la
8BB/	5	8b\L	8gg\	8BB/	pu-	8d\	pu-	8g\	pu-	8b\	pu-
!	!	!LO:SIC:s=8ccJ	!	!LO:SIC:s=8C	!	!	!	!	!	!	!
8C/J	.	8cc#\J	8aa\J	8C#/	-ri-	8e\	-ri-	8a\	-ri-	8cc\	-ri-
4D\	.	4a/	4ff#\	4D/	-ta-	4d\	-ta-	4f#\	-ta-	4a\	-ta-
=12	=12	=12	=12	=12	=12	=12	=12	=12	=12	=12	=12
!	!	!	!	!	!	!LO:TX:t=P:problem=cauda nuty 4B po prawej stronie	!	!	!	!	!
4GG/	.	4b/	4gg\	4GG/	-tis	4B\	-tis	4g\	-tis	4g/	-tis
*	*	*	*	*	*Xij	*	*	*	*Xij	*	*
!	!	!	!LO:TX:t=P:problem=brak pauz 4r 2r	!	!	!	!	!	!	!	!
4r	.	4r	4ryy	4r	.	4r	.	4r	.	4r	.
2r	.	2r	2ryy	2r	.	2r	.	2r	.	2r	.
=13||	=13||	=13||	=13||	=13||	=13||	=13||	=13||	=13||	=13||	=13||	=13||
!	!	!	!	!LO:MO:mod=*M2/2	!	!LO:MO:mod=*M2/2	!	!LO:MO:mod=*M2/2	!	!	!
*M2/2	*	*M2/2	*M2/2	*null	*	*null	*	*null	*	*M2/2	*
*met(c)	*	*met(C.)	*met(C.)	*	*	*	*	*	*	*met(C.)	*
!	!	!	!	!LO:MO:mod=*met(c|)	!	!LO:MO:mod=*met(c|)	!	!LO:MO:mod=*met(c|)	!	!	!
*mmet(c|)	*	*mmet(c|)	*mmet(c|)	*null	*	*null	*	*null	*	*mmet(c|)	*
!	!	!	!	!LO:TX:a:Bi:t=Solamen\nRitonelo\nTC:mod=	!	!LO:TX:a:Bi:t=Solamen\nMerenti. TC.:mod=	!	!LO:TX:a:Bi:t=Solamen Cantus Tac:mod=	!	!	!
!LO:TX:a:Bi:t=Solo:rj:mod=	!	!	!	!	!	!	!	!	!	!LO:TX:a:Bi:t=S.:rj:mod=	!
8G\L	.	00r	00r	1ryy	.	1ryy	.	1ryy	.	4r	.
8A\	.	.	.	.	.	.	.	.	.	.	.
8B\	.	.	.	.	.	.	.	.	.	8r	.
!	!	!	!	!	!	!	!	!	!	!LO:TX:a:t= :mod=Solo	!
8G\J	.	.	.	.	.	.	.	.	.	8g/	So-
8F#\L	6	.	.	.	.	.	.	.	.	4dd\	-la-
8E\	.	.	.	.	.	.	.	.	.	.	.
8F#\	.	.	.	.	.	.	.	.	.	8dd\	-men
!	!	!	!	!	!	!	!	!	!	!	!LO:MO:mod=moe-
8D\J	.	.	.	.	.	.	.	.	.	8dd\	me-
=14	=14	=14	=14	=14	=14	=14	=14	=14	=14	=14	=14
8G\L	.	.	.	1ryy	.	1ryy	.	1ryy	.	8.b\	-ren-
8A\	.	.	.	.	.	.	.	.	.	.	.
.	.	.	.	.	.	.	.	.	.	16a\	-ti-
8B\	.	.	.	.	.	.	.	.	.	4g/	-um
8c\J	.	.	.	.	.	.	.	.	.	.	.
!LO:TX:t=P:problem=mixed beam	!	!	!	!	!	!	!	!	!	!	!
8d\L	.	.	.	.	.	.	.	.	.	2r	.
8c\	.	.	.	.	.	.	.	.	.	.	.
8d\	.	.	.	.	.	.	.	.	.	.	.
8D/J	4	.	.	.	.	.	.	.	.	.	.
.	3	.	.	.	.	.	.	.	.	.	.
!LO:LB:g=original	!	!	!	!	!	!	!	!	!	!	!
=15	=15	=15	=15	=15	=15	=15	=15	=15	=15	=15	=15
8G\L	.	.	.	1ryy	.	1ryy	.	1ryy	.	4r	.
8A\	.	.	.	.	.	.	.	.	.	.	.
8B\	.	.	.	.	.	.	.	.	.	8r	.
8G\J	.	.	.	.	.	.	.	.	.	8g/	ſo-
8F#\L	.	.	.	.	.	.	.	.	.	4dd\	-la-
8E\	.	.	.	.	.	.	.	.	.	.	.
8F#\	.	.	.	.	.	.	.	.	.	8dd\	-men
!	!	!	!	!	!	!	!	!	!	!	!LO:MO:mod=moe-
8D\J	.	.	.	.	.	.	.	.	.	8dd\	me-
!	!	!	!	!	!	!	!	!	!	!LO:LB:g=original	!
=16	=16	=16	=16	=16	=16	=16	=16	=16	=16	=16	=16
!LO:TX:t=P:problem=mixed beam	!	!	!	!	!	!	!	!	!	!	!
8G\L	.	.	.	1ryy	.	1ryy	.	1ryy	.	8.b\	-ren-
8BB/	.	.	.	.	.	.	.	.	.	.	.
.	.	.	.	.	.	.	.	.	.	16a\	-ti-
8C/	.	.	.	.	.	.	.	.	.	4g\	-um
8D/J	.	.	.	.	.	.	.	.	.	.	.
4GG/	.	.	.	.	.	.	.	.	.	4r	.
!	!	!	!	!	!	!	!	!	!	!	!LO:MO:mod=hor-
8F#\L	6	.	.	.	.	.	.	.	.	8a\	por-
!	!	!	!	!	!	!	!	!	!	!	!LO:MO:mod=-tus
8G\J	.	.	.	.	.	.	.	.	.	8b\	-t(us)
=17	=17	=17	=17	=17	=17	=17	=17	=17	=17	=17	=17
!	!	!	!	!	!	!	!	!	!	!	!LO:MO:mod=vo-
4A\	6	00r	00r	1ryy	.	1ryy	.	1ryy	.	16cc\LL	Vo-
.	.	.	.	.	.	.	.	.	.	16b\	.
.	.	.	.	.	.	.	.	.	.	16a\	.
.	.	.	.	.	.	.	.	.	.	16b\JJ	.
8r	.	.	.	.	.	.	.	.	.	8cc\L	.
16E\LL	6	.	.	.	.	.	.	.	.	16dd\L	.
16F#\JJ	.	.	.	.	.	.	.	.	.	16cc\JJ	.
4G\	.	.	.	.	.	.	.	.	.	16b\LL	.
.	.	.	.	.	.	.	.	.	.	16a\	.
.	.	.	.	.	.	.	.	.	.	16b\	.
.	.	.	.	.	.	.	.	.	.	16cc\JJ	.
8r	.	.	.	.	.	.	.	.	.	8b\L	.
8BB/	.	.	.	.	.	.	.	.	.	16cc\L	.
.	.	.	.	.	.	.	.	.	.	16b\JJ	.
=18	=18	=18	=18	=18	=18	=18	=18	=18	=18	=18	=18
8C/L	.	.	.	1ryy	.	1ryy	.	1ryy	.	16a\LL	.
.	.	.	.	.	.	.	.	.	.	16b\JJ	.
!	!	!	!	!	!	!	!	!	!	!LO:SIC:s=16gLL	!
8GG/	.	.	.	.	.	.	.	.	.	(<16g/LL	-lup-
!	!	!	!	!	!	!	!	!	!	!LO:SIC:s=16aJJ	!
.	.	.	.	.	.	.	.	.	.	16a/JJ)	.
8D/	.	.	.	.	.	.	.	.	.	4f#/	-ta-
8DD/J	.	.	.	.	.	.	.	.	.	.	.
8GG/L	.	.	.	.	.	.	.	.	.	4g/	-tis
8C/	.	.	.	.	.	.	.	.	.	.	.
8D/	.	.	.	.	.	.	.	.	.	4r	.
8DD/J	.	.	.	.	.	.	.	.	.	.	.
=19	=19	=19	=19	=19	=19	=19	=19	=19	=19	=19	=19
4G\	.	.	.	1ryy	.	1ryy	.	1ryy	.	4r	.
!	!	!	!	!	!	!	!	!	!	!	!LO:MO:mod=hor-
8F#\L	6	.	.	.	.	.	.	.	.	8a\	por-
8G\J	.	.	.	.	.	.	.	.	.	8b\	-tus
4A\	6	.	.	.	.	.	.	.	.	16cc\LL	vo-
.	.	.	.	.	.	.	.	.	.	16b\	.
.	.	.	.	.	.	.	.	.	.	16a\	.
.	.	.	.	.	.	.	.	.	.	16b\JJ	.
8r	.	.	.	.	.	.	.	.	.	8cc\L	.
16E\LL	6	.	.	.	.	.	.	.	.	16dd\L	.
16F#\JJ	.	.	.	.	.	.	.	.	.	16cc\JJ	.
=20	=20	=20	=20	=20	=20	=20	=20	=20	=20	=20	=20
4G\	.	.	.	1ryy	.	1ryy	.	1ryy	.	16b\LL	.
.	.	.	.	.	.	.	.	.	.	16a\	.
.	.	.	.	.	.	.	.	.	.	16g\	.
.	.	.	.	.	.	.	.	.	.	16a\JJ	.
8r	.	.	.	.	.	.	.	.	.	8b\L	.
8BB/	.	.	.	.	.	.	.	.	.	16cc\L	.
.	.	.	.	.	.	.	.	.	.	16b\JJ	.
!LO:LB:g=original	!	!	!	!	!	!	!	!	!	!	!
8C/L	.	.	.	.	.	.	.	.	.	16a\LL	.
.	.	.	.	.	.	.	.	.	.	16b\JJ	.
*	*	*	*	*	*	*	*	*	*	*custos:g	*
!	!	!	!	!	!	!	!	!	!	!LO:LB:g=original	!
!	!	!	!	!	!	!	!	!	!	!LO:SIC:s=16gLL	!
8GG/	.	.	.	.	.	.	.	.	.	(<16g/LL	-lup-
!	!	!	!	!	!	!	!	!	!	!LO:SIC:s=16aJJ	!
.	.	.	.	.	.	.	.	.	.	16a/JJ)	.
8D/	.	.	.	.	.	.	.	.	.	4f#/	-ta-
8DD/J	4	.	.	.	.	.	.	.	.	.	.
.	3	.	.	.	.	.	.	.	.	.	.
=21	=21	=21	=21	=21	=21	=21	=21	=21	=21	=21	=21
4GG/	.	00r	00r	1ryy	.	1ryy	.	1ryy	.	4g/	-tis
8D\L	.	.	.	.	.	.	.	.	.	8a\	pal-
8F#\J	.	.	.	.	.	.	.	.	.	8a\	-ma
8G\L	.	.	.	.	.	.	.	.	.	8b\	pa-
8F#\	6	.	.	.	.	.	.	.	.	8a\	-ti-
8G\	.	.	.	.	.	.	.	.	.	8.b\	-en-
8C\J	7	.	.	.	.	.	.	.	.	.	.
.	6	.	.	.	.	.	.	.	.	16a\	-ti-
=22	=22	=22	=22	=22	=22	=22	=22	=22	=22	=22	=22
8D\L	.	.	.	1ryy	.	1ryy	.	1ryy	.	4a\	-ae
8E\	.	.	.	.	.	.	.	.	.	.	.
8F#\	.	.	.	.	.	.	.	.	.	4r	.
8D\J	.	.	.	.	.	.	.	.	.	.	.
!LO:TX:t=P:problem=mixed beam	!	!	!	!	!	!	!	!	!	!	!
8G\L	.	.	.	.	.	.	.	.	.	2r	.
8GG/	.	.	.	.	.	.	.	.	.	.	.
8BB/	.	.	.	.	.	.	.	.	.	.	.
8C/J	.	.	.	.	.	.	.	.	.	.	.
=23	=23	=23	=23	=23	=23	=23	=23	=23	=23	=23	=23
!	!	!	!	!	!	!	!	!	!	!LO:TX:t=P:problem=podłożenie tekstu mocno ściśnięte	!
4D\	.	.	.	1ryy	.	1ryy	.	1ryy	.	4r	.
8D\L	.	.	.	.	.	.	.	.	.	8b\	pal-
8F#\J	.	.	.	.	.	.	.	.	.	8b\	-ma
8G\L	.	.	.	.	.	.	.	.	.	8b\	pa-
8F#\	6	.	.	.	.	.	.	.	.	8a\	-ti-
8G\	.	.	.	.	.	.	.	.	.	8.b\	-en-
8C\J	7	.	.	.	.	.	.	.	.	.	.
.	6	.	.	.	.	.	.	.	.	16b\	-ti-
=24	=24	=24	=24	=24	=24	=24	=24	=24	=24	=24	=24
4D\	.	.	.	1ryy	.	1ryy	.	1ryy	.	4a\	-ae
8G\L	.	.	.	.	.	.	.	.	.	8dd\	ce-
8B\J	6	.	.	.	.	.	.	.	.	8dd\	-drus
!	!	!	!	!	!	!	!	!	!	!	!LO:MO:mod=ca-
4c\	6	.	.	.	.	.	.	.	.	16ee\LL	Ca-
.	.	.	.	.	.	.	.	.	.	16dd\	.
.	.	.	.	.	.	.	.	.	.	16cc\	.
.	.	.	.	.	.	.	.	.	.	16dd\JJ	.
8r	.	.	.	.	.	.	.	.	.	8ee\L	.
8A\	6	.	.	.	.	.	.	.	.	16dd\L	.
.	.	.	.	.	.	.	.	.	.	16cc\JJ	.
=25	=25	=25	=25	=25	=25	=25	=25	=25	=25	=25	=25
4B\	6	00r	00r	1ryy	.	1ryy	.	1ryy	.	16dd\LL	.
.	.	.	.	.	.	.	.	.	.	16cc\	.
.	.	.	.	.	.	.	.	.	.	16b\	.
.	.	.	.	.	.	.	.	.	.	16cc\JJ	.
*	*	*	*	*	*	*	*	*	*	*custos:dd	*
!	!	!	!	!	!	!	!	!	!	!LO:LB:g=original	!
8r	.	.	.	.	.	.	.	.	.	8dd\L	.
8G\	6	.	.	.	.	.	.	.	.	16cc\L	.
.	.	.	.	.	.	.	.	.	.	16b\JJ	.
4A\	6	.	.	.	.	.	.	.	.	16cc\LL	.
.	.	.	.	.	.	.	.	.	.	16b\	.
.	.	.	.	.	.	.	.	.	.	16a\	.
.	.	.	.	.	.	.	.	.	.	16b\JJ	.
8r	.	.	.	.	.	.	.	.	.	8cc\L	.
8F#\	6	.	.	.	.	.	.	.	.	16b\L	.
.	.	.	.	.	.	.	.	.	.	16a\JJ	.
!LO:LB:g=original	!	!	!	!	!	!	!	!	!	!	!
=26	=26	=26	=26	=26	=26	=26	=26	=26	=26	=26	=26
!LO:TX:t=P:problem=mixed beam	!	!	!	!	!	!	!	!	!	!	!
8G\L	.	.	.	1ryy	.	1ryy	.	1ryy	.	8b\	.
8C\	.	.	.	.	.	.	.	.	.	8cc\	-sti-
8D\	.	.	.	.	.	.	.	.	.	4a\	-ta-
8DD/J	4	.	.	.	.	.	.	.	.	.	.
.	3	.	.	.	.	.	.	.	.	.	.
8GG/L	.	.	.	.	.	.	.	.	.	4g/	-tis
8C/	.	.	.	.	.	.	.	.	.	.	.
8D/	.	.	.	.	.	.	.	.	.	4r	.
8DD/J	4	.	.	.	.	.	.	.	.	.	.
.	3	.	.	.	.	.	.	.	.	.	.
=27	=27	=27	=27	=27	=27	=27	=27	=27	=27	=27	=27
4GG/	.	.	.	1ryy	.	1ryy	.	1ryy	.	4r	.
8G\L	.	.	.	.	.	.	.	.	.	8dd\	ce-
8B\J	6	.	.	.	.	.	.	.	.	8dd\	-drus
4c\	6	.	.	.	.	.	.	.	.	16ee\LL	ca-
.	.	.	.	.	.	.	.	.	.	16dd\	.
.	.	.	.	.	.	.	.	.	.	16cc\	.
.	.	.	.	.	.	.	.	.	.	16dd\JJ	.
8r	.	.	.	.	.	.	.	.	.	8ee\L	.
8A\	6	.	.	.	.	.	.	.	.	16dd\L	.
.	.	.	.	.	.	.	.	.	.	16cc\JJ	.
=28	=28	=28	=28	=28	=28	=28	=28	=28	=28	=28	=28
4B\	6	.	.	1ryy	.	1ryy	.	1ryy	.	16dd\LL	.
.	.	.	.	.	.	.	.	.	.	16cc\	.
.	.	.	.	.	.	.	.	.	.	16b\	.
.	.	.	.	.	.	.	.	.	.	16cc\JJ	.
8r	.	.	.	.	.	.	.	.	.	8dd\L	.
8G\	6	.	.	.	.	.	.	.	.	16cc\L	.
.	.	.	.	.	.	.	.	.	.	16b\JJ	.
4A\	6	.	.	.	.	.	.	.	.	16cc\LL	.
.	.	.	.	.	.	.	.	.	.	16b\	.
.	.	.	.	.	.	.	.	.	.	16a\	.
.	.	.	.	.	.	.	.	.	.	16b\JJ	.
8r	.	.	.	.	.	.	.	.	.	8cc\L	.
8F#\	6	.	.	.	.	.	.	.	.	16b\L	.
.	.	.	.	.	.	.	.	.	.	16a\JJ	.
=29	=29	=29	=29	=29	=29	=29	=29	=29	=29	=29	=29
!LO:TX:t=P:problem=mixed beam	!	!	!	!	!	!	!	!	!	!	!
8G\L	.	1rdd	2r	1ryy	.	1ryy	.	1ryy	.	8b\	.
8C\	.	.	.	.	.	.	.	.	.	8cc\	-sti-
8D\	.	.	.	.	.	.	.	.	.	4a\	-ta-
8DD/J	4	.	.	.	.	.	.	.	.	.	.
.	3	.	.	.	.	.	.	.	.	.	.
!	!	!	!LO:TX:a:Bi:t=Solo:mod=	!	!	!	!	!	!	!	!
!	!	!	!LO:TX:b:Bi:t=ſolamen:mod=	!	!	!	!	!	!	!	!
4GG/	.	.	8dd\L	.	.	.	.	.	.	4g/	-tis
.	.	.	16dd\L	.	.	.	.	.	.	.	.
.	.	.	16dd\JJ	.	.	.	.	.	.	.	.
8r	.	.	8dd\L	.	.	.	.	.	.	4r	.
8F#\	.	.	8a\J	.	.	.	.	.	.	.	.
!	!	!	!	!	!	!	!	!	!	!LO:PB:g=original	!
=30	=30	=30	=30	=30	=30	=30	=30	=30	=30	=30	=30
4G\	.	8dd\L	8b\L	1ryy	.	1ryy	.	1ryy	.	00r	.
.	.	16dd\L	16b\L	.	.	.	.	.	.	.	.
.	.	16dd\JJ	16b\JJ	.	.	.	.	.	.	.	.
8r	.	8dd\L	8b\L	.	.	.	.	.	.	.	.
8D/	.	8a\J	8f#\J	.	.	.	.	.	.	.	.
!	!	!LO:LB:g=original	!	!	!	!	!	!	!	!	!
8G\L	.	4b\	4g/	.	.	.	.	.	.	.	.
16G\L	.	.	.	.	.	.	.	.	.	.	.
16G\JJ	.	.	.	.	.	.	.	.	.	.	.
8G\L	.	16r	16r	.	.	.	.	.	.	.	.
.	.	16g/LL	16b\LL	.	.	.	.	.	.	.	.
!	!	!	!LO:SIC:s=16cc	!	!	!	!	!	!	!	!
8B\J	6	16a/	16cc#\	.	.	.	.	.	.	.	.
.	.	16b/JJ	16dd\JJ	.	.	.	.	.	.	.	.
!LO:LB:g=original	!	!	!	!	!	!	!	!	!	!	!
=31	=31	=31	=31	=31	=31	=31	=31	=31	=31	=31	=31
!	!	!LO:SIC:s=8ccL	!	!	!	!	!	!	!	!	!
4c\	.	8cc#\L	8ee\L	1ryy	.	1ryy	.	1ryy	.	.	.
!	!	!LO:SIC:s=16ccL	!	!	!	!	!	!	!	!	!
.	.	16cc#\L	16ee\L	.	.	.	.	.	.	.	.
!	!	!LO:SIC:s=16ccJJ	!	!	!	!	!	!	!	!	!
.	.	16cc#\JJ	16ee\JJ	.	.	.	.	.	.	.	.
!	!	!LO:SIC:s=8ccL	!	!	!	!	!	!	!	!	!
8r	.	8cc#\L	8ee\L	.	.	.	.	.	.	.	.
!	!	!	!LO:SIC:s=8ccJ	!	!	!	!	!	!	!	!
8A\	6	8a\J	8cc#\J	.	.	.	.	.	.	.	.
4B\	6	8b\L	8dd\L	.	.	.	.	.	.	.	.
.	.	16b\L	16dd\L	.	.	.	.	.	.	.	.
.	.	16b\JJ	16dd\JJ	.	.	.	.	.	.	.	.
8r	.	8b\L	8dd\L	.	.	.	.	.	.	.	.
8G\	6	8g\J	8b\J	.	.	.	.	.	.	.	.
!	!	!	!LO:LB:g=original	!	!	!	!	!	!	!	!
=32	=32	=32	=32	=32	=32	=32	=32	=32	=32	=32	=32
!	!	!	!LO:SIC:s=8ccL	!	!	!	!	!	!	!	!
4A\	6	8a/L	8cc#\L	1ryy	.	1ryy	.	1ryy	.	.	.
!	!	!	!LO:SIC:s=16ccL	!	!	!	!	!	!	!	!
.	.	16a/L	16cc#\L	.	.	.	.	.	.	.	.
!	!	!	!LO:SIC:s=16ccJJ	!	!	!	!	!	!	!	!
.	.	16a/JJ	16cc#\JJ	.	.	.	.	.	.	.	.
!	!	!	!LO:SIC:s=8ccL	!	!	!	!	!	!	!	!
8r	.	8a/L	8cc#\L	.	.	.	.	.	.	.	.
8F#\	.	8f#/J	8a\J	.	.	.	.	.	.	.	.
!LO:TX:t=P:problem=mixed beam	!	!	!	!	!	!	!	!	!	!	!
8G\L	.	8g/L	16b\LL	.	.	.	.	.	.	.	.
.	.	.	16dd\	.	.	.	.	.	.	.	.
!	!	!	!LO:SIC:s=16cc	!	!	!	!	!	!	!	!
8C\	.	8g/J	16cc#\	.	.	.	.	.	.	.	.
.	.	.	16b\JJ	.	.	.	.	.	.	.	.
8D\	4	4f#/	8.a/L	.	.	.	.	.	.	.	.
.	3	.	.	.	.	.	.	.	.	.	.
8DD/J	.	.	.	.	.	.	.	.	.	.	.
.	.	.	16g/Jk	.	.	.	.	.	.	.	.
=33	=33	=33	=33	=33	=33	=33	=33	=33	=33	=33	=33
!LO:TX:t=P:problem=mixed beam	!	!	!	!	!	!	!	!	!	!	!
8GG/L	.	4g/	4g/	1ryy	.	1ryy	.	1ryy	.	.	.
16G\L	.	.	.	.	.	.	.	.	.	.	.
16G\JJ	.	.	.	.	.	.	.	.	.	.	.
8G\L	.	16r	16r	.	.	.	.	.	.	.	.
.	.	16g/LL	16b\LL	.	.	.	.	.	.	.	.
!	!	!	!LO:SIC:s=16cc	!	!	!	!	!	!	!	!
8B\J	6	16a/	16cc#\	.	.	.	.	.	.	.	.
.	.	16b/JJ	16dd\JJ	.	.	.	.	.	.	.	.
!	!	!LO:SIC:s=8ccL	!	!	!	!	!	!	!	!	!
4c\	.	8cc#\L	8ee\L	.	.	.	.	.	.	.	.
!	!	!LO:SIC:s=16ccL	!	!	!	!	!	!	!	!	!
.	.	16cc#\L	16ee\L	.	.	.	.	.	.	.	.
!	!	!LO:SIC:s=16ccJJ	!	!	!	!	!	!	!	!	!
.	.	16cc#\JJ	16ee\JJ	.	.	.	.	.	.	.	.
!	!	!LO:SIC:s=8ccL	!	!	!	!	!	!	!	!	!
8r	.	8cc#\L	8ee\L	.	.	.	.	.	.	.	.
!	!	!	!LO:SIC:s=8ccJ	!	!	!	!	!	!	!	!
8A\	6	8a\J	8cc#\J	.	.	.	.	.	.	.	.
=34	=34	=34	=34	=34	=34	=34	=34	=34	=34	=34	=34
4B\	6	8b\L	8dd\L	1ryy	.	1ryy	.	1ryy	.	0r	.
.	.	16b\L	16dd\L	.	.	.	.	.	.	.	.
.	.	16b\JJ	16dd\JJ	.	.	.	.	.	.	.	.
8r	.	8b\L	8dd\L	.	.	.	.	.	.	.	.
!	!	!LO:SIC:s=8gJ	!	!	!	!	!	!	!	!	!
8G\	6	8a\J	8b\J	.	.	.	.	.	.	.	.
!	!	!	!LO:SIC:s=8ccL	!	!	!	!	!	!	!	!
4A\	6	8a/L	8cc#\L	.	.	.	.	.	.	.	.
!	!	!	!LO:SIC:s=16ccL	!	!	!	!	!	!	!	!
.	.	16a/L	16cc#\L	.	.	.	.	.	.	.	.
!	!	!	!LO:SIC:s=16ccJJ	!	!	!	!	!	!	!	!
.	.	16a/JJ	16cc#\JJ	.	.	.	.	.	.	.	.
!	!	!	!LO:SIC:s=8ccL	!	!	!	!	!	!	!	!
8r	.	8a/L	8cc#\L	.	.	.	.	.	.	.	.
8F#\	.	8f#/J	8a\J	.	.	.	.	.	.	.	.
!	!	!LO:LB:g=original	!	!	!	!	!	!	!	!	!
=35	=35	=35	=35	=35	=35	=35	=35	=35	=35	=35	=35
!LO:TX:t=P:problem=mixed beam	!	!	!	!	!	!	!	!	!	!	!
8G\L	.	8g/L	16b\LL	1ryy	.	1ryy	.	1ryy	.	.	.
.	.	.	16dd\	.	.	.	.	.	.	.	.
!	!	!	!LO:SIC:s=16cc	!	!	!	!	!	!	!	!
8C\	.	8g/J	16cc#\	.	.	.	.	.	.	.	.
.	.	.	16b\JJ	.	.	.	.	.	.	.	.
8D\	.	4f#/	8.a/L	.	.	.	.	.	.	.	.
8DD/J	4	.	.	.	.	.	.	.	.	.	.
.	3	.	16a/Jk	.	.	.	.	.	.	.	.
4GG/	.	4g/	4g/	.	.	.	.	.	.	.	.
4r	.	4r	4r	.	.	.	.	.	.	.	.
!LO:LB:g=original	!	!	!	!	!	!	!	!	!	!	!
=36||	=36||	=36||	=36||	=36||	=36||	=36||	=36||	=36||	=36||	=36||	=36||
!	!	!	!	!	!	!LO:MO:mod=*M3/2	!	!LO:MO:mod=*M3/2	!	!LO:MO:mod=*M3/2	!
*M3/2	*	*M3/2	*M3/2	*M3/2	*	*null	*	*null	*	*null	*
!LO:TX:a:i:t=Solo:mod=	!	!LO:TX:a:Bi:t=Solo:mod=	!	!	!	!	!	!	!	!	!
!LO:TX:b:Bi:t=Terra es benedicta:dur=9h:ext=s:problem=text with extention lines:mod=	!	!LO:TX:b:B:t=Terra:mod=	!	!	!	!LO:TX:a:Bi:t=Terra es Benedicta.\nTC:mod=	!	!LO:TX:a:Bi:t=Terra eſ Bene:mod=	!	!LO:TX:a:B:t=Terra es\nT.C.:mod=	!
1G	.	0.r	0.r	2r	.	1.ryy	.	1.ryy	.	1.ryy	.
!LO:MO:mod=*null:null	!	!	!	!LO:MO:mod=*null:null	!	!	!	!	!	!	!
*2\right	*	*	*	*2\right	*	*	*	*	*	*	*
!	!	!	!	!LO:TX:a:t= :mod=Solo	!	!	!	!	!	!	!
.	.	.	.	2G	Ter-	.	.	.	.	.	.
2F#\	6	.	.	2D\	-ra	.	.	.	.	.	.
=37	=37	=37	=37	=37	=37	=37	=37	=37	=37	=37	=37
2G\	.	.	.	2G\	es	1.ryy	.	1.ryy	.	1.ryy	.
2C/	.	.	.	(>4A\	be-	.	.	.	.	.	.
.	.	.	.	4B\)	.	.	.	.	.	.	.
!	!	!	!	!LO:SIC:s=(4c	!	!	!	!	!	!	!
2D/	4	.	.	(>4c#\	-ne-	.	.	.	.	.	.
.	3	.	.	4d\)	.	.	.	.	.	.	.
=38	=38	=38	=38	=38	=38	=38	=38	=38	=38	=38	=38
2GG/	.	2r	2r	2B\	-dic-	1.ryy	.	1.ryy	.	1.ryy	.
!	!	!	!LO:MO:mod=*null:null	!	!	!	!	!	!	!	!
*	*	*	*2\right	*	*	*	*	*	*	*	*
2G\	.	2b/	2gg\	2G\	-ta	.	.	.	.	.	.
2F#\	6\	2a/	2ff#\	2r	.	.	.	.	.	.	.
=39	=39	=39	=39	=39	=39	=39	=39	=39	=39	=39	=39
!!LO:MO:ori
2GG/	.	2b/	2gg\	2r	.	1.ryy	.	1.ryy	.	1.ryy	.
!	!	!	!	!LO:LB:g=original	!	!	!	!	!	!	!
!	!	!	!	!LO:TX:t=P:problem=niepotrzebnie powtórzona pauza	!	!	!	!	!	!	!
2ryy	.	2ryy	2ryy	2r	.	.	.	.	.	.	.
2G\	.	2d/	2g/	2G\	Ter-	.	.	.	.	.	.
2F#\	6	2r	2r	2D\	-ra	2ryy	.	2ryy	.	2ryy	.
!!LO:MO:mod
!! 2GG/	.	2b/	2gg\	2r	.	1.r	.	1.r	.	1.r	.
!! !	!	!	!	!LO:LB:g=original	!	!	!	!	!	!	!
!! 2G\	.	2d/	2g/	2G\	Ter-	.	.	.	.	.	.
!! 2F#\	6	2r	2r	2D\	-ra	.	.	.	.	.	.
!!LO:MO:end
=40	=40	=40	=40	=40	=40	=40	=40	=40	=40	=40	=40
2G\	.	0.r	0.r	2G\	eſ	1.ryy	.	1.ryy	.	1.ryy	.
2C/	.	.	.	(>4A\	be-	.	.	.	.	.	.
.	.	.	.	4B\)	.	.	.	.	.	.	.
!	!	!	!	!LO:SIC:s=(4c	!	!	!	!	!	!	!
2D/	.	.	.	(>4c#\	-ne-	.	.	.	.	.	.
.	.	.	.	4d\)	.	.	.	.	.	.	.
=41	=41	=41	=41	=41	=41	=41	=41	=41	=41	=41	=41
1GG	.	.	.	2B\	-dic-	1.ryy	.	1.ryy	.	1.ryy	.
.	.	.	.	2G\	-ta	.	.	.	.	.	.
2D\	.	.	.	4A\	et	.	.	.	.	.	.
.	.	.	.	4B\	sa-	.	.	.	.	.	.
=42	=42	=42	=42	=42	=42	=42	=42	=42	=42	=42	=42
2E\	6	1.r	1.r	4G\	-cer-	1.ryy	.	1.ryy	.	1.ryy	.
.	.	.	.	4F#\	.	.	.	.	.	.	.
2r	.	.	.	4E\	.	.	.	.	.	.	.
.	.	.	.	4F#\	.	.	.	.	.	.	.
2C#X/	6	.	.	(>4G\	-do-	.	.	.	.	.	.
.	.	.	.	4A\)	.	.	.	.	.	.	.
=43	=43	=43	=43	=43	=43	=43	=43	=43	=43	=43	=43
2D\	.	2r	2r	2F#\	-ta-	1.ryy	.	1.ryy	.	1.ryy	.
2d\	.	2f#/	2dd\	2D\	-lis	.	.	.	.	.	.
2A\	.	2e/	2cc#\	2r	.	.	.	.	.	.	.
!LO:LB:g=original	!	!	!LO:LB:g=original	!	!	!	!	!	!	!	!
=44	=44	=44	=44	=44	=44	=44	=44	=44	=44	=44	=44
1D	.	1f#	2dd\	2r	.	1.ryy	.	1.ryy	.	1.ryy	.
.	.	.	2d/	2r	.	.	.	.	.	.	.
2D\	.	2r	2r	4A\	et	.	.	.	.	.	.
.	.	.	.	4B\	sa-	.	.	.	.	.	.
=45	=45	=45	=45	=45	=45	=45	=45	=45	=45	=45	=45
2E\	.	00.r	00.r	4G\	-cer-	1.ryy	.	1.ryy	.	1.ryy	.
.	.	.	.	4F#\	.	.	.	.	.	.	.
2r	.	.	.	4E\	.	.	.	.	.	.	.
.	.	.	.	4F#\	.	.	.	.	.	.	.
!LO:SIC:s=2C#	!	!	!	!	!	!	!	!	!	!	!
2C/	.	.	.	(>4G\	-do-	.	.	.	.	.	.
.	.	.	.	4A\)	.	.	.	.	.	.	.
=46	=46	=46	=46	=46	=46	=46	=46	=46	=46	=46	=46
1D	.	.	.	2F#\	-ta-	1.ryy	.	1.ryy	.	1.ryy	.
.	.	.	.	2D\	-lis	.	.	.	.	.	.
!	!	!	!	!LO:LB:g=original	!	!	!	!	!	!	!
2F#\	6	.	.	4d\	ſan-	.	.	.	.	.	.
!	!	!	!	!LO:SIC:s=4c	!	!	!	!	!	!	!
.	.	.	.	4c#\	-cta	.	.	.	.	.	.
=47	=47	=47	=47	=47	=47	=47	=47	=47	=47	=47	=47
2G\	.	.	.	2B\	at-	1.ryy	.	1.ryy	.	1.ryy	.
!	!	!	!	!	!LO:MO:mod=-quae	!	!	!	!	!	!
2F#\	6	.	.	(>4A\	-qu(ae)	.	.	.	.	.	.
.	.	.	.	4B\)	.	.	.	.	.	.	.
!	!	!	!	!LO:SIC:s=(4G	!	!	!	!	!	!	!
2E\	6	.	.	4G\	.	.	.	.	.	.	.
!	!	!	!	!LO:SIC:s=4A)	!	!	!	!	!	!	!
.	.	.	.	4A\	.	.	.	.	.	.	.
=48	=48	=48	=48	=48	=48	=48	=48	=48	=48	=48	=48
1.D	.	.	.	2.F#\	im-	1.ryy	.	1.ryy	.	1.ryy	.
.	.	.	.	4E\	-mu-	.	.	.	.	.	.
.	.	.	.	2D\	-nis	.	.	.	.	.	.
=49	=49	=49	=49	=49	=49	=49	=49	=49	=49	=49	=49
!	!	!	!	!	!LO:MO:mod=cul-	!	!	!	!	!	!
2D\	.	00.r	00.r	2D\	Cul-	1.ryy	.	1.ryy	.	1.ryy	.
!	!	!	!	!	!LO:MO:mod=-pae	!	!	!	!	!	!
2r	.	.	.	(>4E\	-pa	.	.	.	.	.	.
.	.	.	.	4F#\)	.	.	.	.	.	.	.
2E\	6	.	.	(>4G\	o-	.	.	.	.	.	.
.	.	.	.	4F#\)	.	.	.	.	.	.	.
=50	=50	=50	=50	=50	=50	=50	=50	=50	=50	=50	=50
2C#X/	6	.	.	4E\	-ri-	1.ryy	.	1.ryy	.	1.ryy	.
.	.	.	.	4E\	-gi-	.	.	.	.	.	.
2r	.	.	.	4F#\	-na-	.	.	.	.	.	.
.	.	.	.	4G\	.	.	.	.	.	.	.
2F#\	.	.	.	4A\	.	.	.	.	.	.	.
.	.	.	.	4G\	.	.	.	.	.	.	.
=51	=51	=51	=51	=51	=51	=51	=51	=51	=51	=51	=51
2D\	.	.	.	4F#\	.	1.ryy	.	1.ryy	.	1.ryy	.
.	.	.	.	4F#\	.	.	.	.	.	.	.
2r	.	.	.	4G\	.	.	.	.	.	.	.
.	.	.	.	4A\	.	.	.	.	.	.	.
2G\	.	.	.	4B\	.	.	.	.	.	.	.
.	.	.	.	4A\	.	.	.	.	.	.	.
=52	=52	=52	=52	=52	=52	=52	=52	=52	=52	=52	=52
1A	7	.	.	4G\	.	1.ryy	.	1.ryy	.	1.ryy	.
.	6	.	.	4F#\	.	.	.	.	.	.	.
.	.	.	.	1E	.	.	.	.	.	.	.
2AA/	4	.	.	.	.	.	.	.	.	.	.
.	3	.	.	.	.	.	.	.	.	.	.
!LO:LB:g=original	!	!	!	!	!	!	!	!	!	!	!
=53	=53	=53	=53	=53	=53	=53	=53	=53	=53	=53	=53
!	!	!LO:MO:mod=*null:null	!	!	!	!	!	!	!	!	!
*	*	*2\right	*	*	*	*	*	*	*	*	*
!	!	!LO:TX:t=P:problem=niejednoznaczny zapis pod nutami - staccato?	!	!	!	!	!	!	!	!	!
2D\	.	2ff#\	4aa\	2D\	-lis	1.ryy	.	1.ryy	.	1.ryy	.
.	.	.	4aa\	.	.	.	.	.	.	.	.
2r	.	2r	4ff#\	2r	.	.	.	.	.	.	.
.	.	.	4aa\	.	.	.	.	.	.	.	.
2D\	.	2ff#\	4ff#\	2r	.	.	.	.	.	.	.
.	.	.	4aa\	.	.	.	.	.	.	.	.
=54	=54	=54	=54	=54	=54	=54	=54	=54	=54	=54	=54
2E\	6	2ee\	4gg\	00.r	.	1.ryy	.	1.ryy	.	1.ryy	.
.	.	.	4gg\	.	.	.	.	.	.	.	.
2r	.	2r	4ee\	.	.	.	.	.	.	.	.
.	.	.	4gg\	.	.	.	.	.	.	.	.
2E\	6	2ee\	4ee\	.	.	.	.	.	.	.	.
.	.	.	4gg\	.	.	.	.	.	.	.	.
=55	=55	=55	=55	=55	=55	=55	=55	=55	=55	=55	=55
2D\	.	4dd\	2ff#\	.	.	1.ryy	.	1.ryy	.	1.ryy	.
.	.	4dd\	.	.	.	.	.	.	.	.	.
2r	.	4b\	2r	.	.	.	.	.	.	.	.
.	.	4dd\	.	.	.	.	.	.	.	.	.
2D\	.	4b\	2ff#\	.	.	.	.	.	.	.	.
.	.	4dd\	.	.	.	.	.	.	.	.	.
=56	=56	=56	=56	=56	=56	=56	=56	=56	=56	=56	=56
2AA/	.	4cc#\	2ee\	.	.	1.ryy	.	1.ryy	.	1.ryy	.
.	.	4cc#\	.	.	.	.	.	.	.	.	.
!	!	!LO:LB:g=original	!	!	!	!	!	!	!	!	!
2r	.	4a\	2r	.	.	.	.	.	.	.	.
.	.	4cc#\	.	.	.	.	.	.	.	.	.
2AA/	4	4a\	2ee\	.	.	.	.	.	.	.	.
.	3	4cc#\	.	.	.	.	.	.	.	.	.
=57	=57	=57	=57	=57	=57	=57	=57	=57	=57	=57	=57
2D\	.	2dd\	4dd\	.	.	1.ryy	.	1.ryy	.	1.ryy	.
.	.	.	4dd\	.	.	.	.	.	.	.	.
2r	.	2r	4b\	.	.	.	.	.	.	.	.
.	.	.	4dd\	.	.	.	.	.	.	.	.
2G\	6	2b\	4b\	.	.	.	.	.	.	.	.
.	.	.	4dd\	.	.	.	.	.	.	.	.
=58	=58	=58	=58	=58	=58	=58	=58	=58	=58	=58	=58
2A\	.	2a/	4cc#\	0.r	.	1.ryy	.	1.ryy	.	1.ryy	.
.	.	.	4cc#\	.	.	.	.	.	.	.	.
2r	.	2r	4a\	.	.	.	.	.	.	.	.
.	.	.	4cc#\	.	.	.	.	.	.	.	.
2A\	.	2a/	4a\	.	.	.	.	.	.	.	.
.	.	.	4cc#\	.	.	.	.	.	.	.	.
=59	=59	=59	=59	=59	=59	=59	=59	=59	=59	=59	=59
2G\	.	4g/	2b\	.	.	1.ryy	.	1.ryy	.	1.ryy	.
.	.	4g/	.	.	.	.	.	.	.	.	.
2r	.	4d/	2r	.	.	.	.	.	.	.	.
.	.	4g/	.	.	.	.	.	.	.	.	.
2G\	.	4d/	2b\	.	.	.	.	.	.	.	.
.	.	4g/	.	.	.	.	.	.	.	.	.
=60	=60	=60	=60	=60	=60	=60	=60	=60	=60	=60	=60
2D\	.	4f#/	2a/	1.r	.	1.ryy	.	1.ryy	.	1.ryy	.
.	.	4f#/	.	.	.	.	.	.	.	.	.
2r	.	4d/	2r	.	.	.	.	.	.	.	.
.	.	4f#/	.	.	.	.	.	.	.	.	.
2D\	.	4d/	2a/	.	.	.	.	.	.	.	.
.	.	4f#/	.	.	.	.	.	.	.	.	.
!LO:PB:g=original	!	!	!	!LO:LB:g=original	!	!	!	!	!	!	!
=61	=61	=61	=61	=61	=61	=61	=61	=61	=61	=61	=61
!	!	!	!	!	!LO:MO:mod=cul-	!	!	!	!	!	!
2GG/	.	2g/	2g/	2G\	Cul-	1.ryy	.	1.ryy	.	1.ryy	.
!	!	!	!	!	!LO:MO:mod=-pae	!	!	!	!	!	!
2r	.	2r	2r	4A\	-pa	.	.	.	.	.	.
.	.	.	.	4B\	o-	.	.	.	.	.	.
!	!	!	!	!LO:SIC:s=4c	!	!	!	!	!	!	!
2A\	6	2r	2r	4c#\	-ri-	.	.	.	.	.	.
.	.	.	.	4B\	-gi-	.	.	.	.	.	.
=62	=62	=62	=62	=62	=62	=62	=62	=62	=62	=62	=62
2F#\	6	0.r	0.r	4A\	-na-	1.ryy	.	1.ryy	.	1.ryy	.
.	.	.	.	4A\	.	.	.	.	.	.	.
2r	.	.	.	4B\	.	.	.	.	.	.	.
!	!	!	!	!LO:SIC:s=4c	!	!	!	!	!	!	!
.	.	.	.	4c#\	.	.	.	.	.	.	.
2B\	6	.	.	4d\	.	.	.	.	.	.	.
!	!	!	!	!LO:SIC:s=4c	!	!	!	!	!	!	!
.	.	.	.	4c#\	.	.	.	.	.	.	.
=63	=63	=63	=63	=63	=63	=63	=63	=63	=63	=63	=63
2G\	6	.	.	4B\	.	1.ryy	.	1.ryy	.	1.ryy	.
.	.	.	.	4B\	.	.	.	.	.	.	.
!	!	!	!	!LO:SIC:s=4c	!	!	!	!	!	!	!
2r	.	.	.	4c#\	.	.	.	.	.	.	.
.	.	.	.	4d\	.	.	.	.	.	.	.
2c\	.	.	.	4e\	.	.	.	.	.	.	.
.	.	.	.	4d\	.	.	.	.	.	.	.
=64	=64	=64	=64	=64	=64	=64	=64	=64	=64	=64	=64
!	!	!	!	!LO:SIC:s=4c	!	!	!	!	!	!	!
4d\	.	1.r	1.r	4c#\	.	1.ryy	.	1.ryy	.	1.ryy	.
4c\	.	.	.	4B\	.	.	.	.	.	.	.
2d\	4	.	.	1A	.	.	.	.	.	.	.
.	3	.	.	.	.	.	.	.	.	.	.
2D/	.	.	.	.	.	.	.	.	.	.	.
=65	=65	=65	=65	=65	=65	=65	=65	=65	=65	=65	=65
2GG/	.	2b\	4dd\	2G\	-lis	1.ryy	.	1.ryy	.	1.ryy	.
.	.	.	4dd\	.	.	.	.	.	.	.	.
2r	.	2r	4b\	2r	.	.	.	.	.	.	.
.	.	.	4dd\	.	.	.	.	.	.	.	.
2G\	.	2b\	4b\	2r	.	.	.	.	.	.	.
.	.	.	4dd\	.	.	.	.	.	.	.	.
!	!	!	!LO:LB:g=original	!	!	!	!	!	!	!	!
=66	=66	=66	=66	=66	=66	=66	=66	=66	=66	=66	=66
2A\	7	2a/	4cc#\	00.r	.	1.ryy	.	1.ryy	.	1.ryy	.
.	.	.	4cc#\	.	.	.	.	.	.	.	.
2r	.	2r	4a\	.	.	.	.	.	.	.	.
.	.	.	4cc#\	.	.	.	.	.	.	.	.
2A\	6	2a/	4a\	.	.	.	.	.	.	.	.
.	.	.	4cc#\	.	.	.	.	.	.	.	.
=67	=67	=67	=67	=67	=67	=67	=67	=67	=67	=67	=67
2G\	.	4g/	2b\	.	.	1.ryy	.	1.ryy	.	1.ryy	.
.	.	4g/	.	.	.	.	.	.	.	.	.
2r	.	4d/	2r	.	.	.	.	.	.	.	.
.	.	4g/	.	.	.	.	.	.	.	.	.
2G\	.	4d/	2b\	.	.	.	.	.	.	.	.
.	.	4g/	.	.	.	.	.	.	.	.	.
!	!	!LO:LB:g=original	!	!	!	!	!	!	!	!	!
=68	=68	=68	=68	=68	=68	=68	=68	=68	=68	=68	=68
2D\	.	4f#/	2a/	.	.	1.ryy	.	1.ryy	.	1.ryy	.
.	.	4f#/	.	.	.	.	.	.	.	.	.
2r	.	4d/	2r	.	.	.	.	.	.	.	.
.	.	4f#/	.	.	.	.	.	.	.	.	.
2D\	4	4d/	2a/	.	.	.	.	.	.	.	.
.	3	4f#/	.	.	.	.	.	.	.	.	.
=69	=69	=69	=69	=69	=69	=69	=69	=69	=69	=69	=69
1.GG	.	1.g	1.g	.	.	1.ryy	.	1.ryy	.	1.ryy	.
!LO:LB:g=original	!	!	!	!	!	!LO:LB:g=original	!	!LO:LB:g=original	!	!	!
=70||	=70||	=70||	=70||	=70||	=70||	=70||	=70||	=70||	=70||	=70||	=70||
!!!OMD:
!!!OMD-mod: Adagio
*M2/2	*	*M2/2	*M2/2	*M2/2	*	*M2/2	*	*M2/2	*	*M2/2	*
*met(c)	*	*met(c|)	*met(c)	*met(c|)	*	*met(c)	*	*met(c|)	*	*met(C.)	*
*mmet(c|)	*	*mmet(c|)	*mmet(c|)	*mmet(c|)	*	*mmet(c|)	*	*mmet(c|)	*	*mmet(c|)	*
!LO:TX:a:Bi:t=Solo:rj:mod=	!	!	!	!	!	!	!	!LO:TX:a:Bi:t=canto:mod=	!	!LO:TX:a:Bi:t=Solo:mod=	!
!LO:TX:b:Bi:t=Adagio:mod=	!	!	!	!	!	!	!	!	!	!	!
4E\	.	0r	0r	0r	.	0r	.	0r	.	4r	.
4D#X\	6	.	.	.	.	.	.	.	.	8r	.
!	!	!	!	!	!	!	!	!	!	!LO:TX:a:t= :mod=Solo	!
.	.	.	.	.	.	.	.	.	.	8b\	Ci-
2E\	.	.	.	.	.	.	.	.	.	4g/	-vi-
.	.	.	.	.	.	.	.	.	.	8g\	-tas
.	.	.	.	.	.	.	.	.	.	8b\	al-
=71	=71	=71	=71	=71	=71	=71	=71	=71	=71	=71	=71
2E\	.	.	.	.	.	.	.	.	.	8.e/	-tis-
.	.	.	.	.	.	.	.	.	.	16e/	-si-
.	.	.	.	.	.	.	.	.	.	4e/	-mi
2C#X/	6	.	.	.	.	.	.	.	.	4r	.
.	.	.	.	.	.	.	.	.	.	8ee\	por-
.	.	.	.	.	.	.	.	.	.	8dd\	-ta
=72	=72	=72	=72	=72	=72	=72	=72	=72	=72	=72	=72
!LO:SIC:s=2F#	!	!	!	!	!	!	!	!	!	!	!
2F#X\	5	1r	1r	1r	.	1r	.	1r	.	4cc#X\	por-
.	6	.	.	.	.	.	.	.	.	8cc#\	-ta
.	.	.	.	.	.	.	.	.	.	8cc#\	o-
8G\L	7	.	.	.	.	.	.	.	.	(>16ee\LL	-ri-
.	6	.	.	.	.	.	.	.	.	16ff#\JJ)	.
!	!	!	!	!	!	!	!	!	!	!	!LO:MO:mod=-en-
8E\J	.	.	.	.	.	.	.	.	.	(>16dd\LL	-gen-
.	.	.	.	.	.	.	.	.	.	16ee\JJ)	.
4F#\	# 4	.	.	.	.	.	.	.	.	4cc#X\	-ta-
.	x 3	.	.	.	.	.	.	.	.	.	.
!	!	!	!	!	!	!	!	!	!	!LO:LB:g=original	!
!!LO:MO:ori
=73	=73	=73	=73	=73	=73	=73	=73	=73	=73	=73	=73
!	!	!	!	!LO:TX:t=P:problem=brak taktu nr 71	!	!LO:TX:t=P:problem=brak taktu nr 71	!	!	!	!	!
4BB/	.	2r	4r	1ryy	.	1ryy	.	4r	.	4b\	-lis
!	!	!	!LO:TX:t=P:problem=pominięty fragment	!	!	!	!	!LO:TX:t=P:problem=pominięty fragment	!	!	!
4r	.	.	2.ryy	.	.	.	.	4ryy	.	4r	.
!	!	!LO:TX:t=P:problem=pominięty fragment	!	!	!	!	!	!	!	!	!
2r	.	2ryy	.	.	.	.	.	2ryy	.	2r	.
!!LO:MO:mod
!! =73	=73	=73	=73	=73	=73	=73	=73	=73	=73	=73	=73
!! 4BB/	.	1r	1r	1r	.	1r	.	1r	.	4b\	-lis
!! 4r	.	.	.	.	.	.	.	.	.	4r	.
!! 2r	.	.	.	.	.	.	.	.	.	2r	.
!!LO:MO:end
=74||	=74||	=74||	=74||	=74||	=74||	=74||	=74||	=74||	=74||	=74||	=74||
*M2/2	*	*M2/2	*M2/2	*M2/2	*	*M2/2	*	*M2/2	*	*M2/2	*
*met(c)	*	*met(c|)	*met(c)	*met(c|)	*	*met(c)	*	*met(c)	*	*met(C.)	*
*mmet(c|)	*	*mmet(c|)	*mmet(c|)	*mmet(c|)	*	*mmet(c|)	*	*mmet(c|)	*	*mmet(c|)	*
!!LO:TX:a:t= :mod=Tutti
!	!	!LO:TX:a:Bi:t=Tutti:mod=	!	!	!	!	!	!	!	!	!
!LO:TX:a:Bi:t=Tutti:mod=	!	!LO:TX:b:Bi:t=Inte eſt Omnis gratię:dur=10qe:ext=s:problem=text with extention lines:mod=	!LO:TX:t=P:problem=mixed beam	!	!	!	!	!	!	!	!
4GG/	.	8d/L	8g/L	4r	.	4r	.	4r	.	4r	.
.	.	8g/	8dd\	.	.	.	.	.	.	.	.
8r	.	8g/	8dd\	8r	.	8r	.	8r	.	8r	.
!	!	!	!	!LO:LB:g=original	!	!	!	!	!LO:MO:mod=in	!	!
8D\	.	8f#/J	8a\J	8D\	in	8d\	in	8d\	In	8a\	in
!LO:TX:t=P:problem=mixed beam	!	!	!	!	!	!	!	!	!	!	!
8GG/L	.	4g/	4b\	8G\	te	8B\	te	8d\	te	8b\	te
8G\	.	.	.	8G\	eſt	8B\	eſt	8d\	est	8b\	eſt
8G\	.	4r	4r	8G\	om-	8B\	om-	8d\	om-	8b\	om-
8F#\J	6	.	.	8F#\	-nis	8A\	-nis	8d\	-nis	8a\	-nis
=75	=75	=75	=75	=75	=75	=75	=75	=75	=75	=75	=75
4G\	.	8d/L	8b\L	16G\	gra-	16G/	gra-	16d\	gra-	16b\	gra-
.	.	.	.	16G\	-ti-	16G/	-ti-	16d\	-ti-	16b\	-ti-
.	.	8g/	8dd\	8G\	-a	8G/	-a	8d\	-a	8b\	-a
8r	.	8g/	8dd\	8r	.	8r	.	8r	.	8r	.
*	*	*	*	*	*	*	*	*	*ij	*	*
!	!	!	!	!	!	!	!	!	!LO:MO:mod=in	!	!
8D\	.	8f#/J	8a\J	8D\	in	8d\	in	8d\	In	8a\	in
8G\L	.	4g/	4b\	8G\	te	8B\	te	8d\	te	8b\	te
8G\	.	.	.	8G\	eſt	8B\	eſt	8d\	est	8b\	eſt
8G\	.	4r	4r	8G\	om-	8B\	om-	8d\	om-	8b\	om-
8F#\J	6	.	.	8F#\	-nis	8A\	-nis	8d\	-nis	8a\	-nis
!LO:LB:g=original	!	!	!	!	!	!	!	!	!	!	!
=76	=76	=76	=76	=76	=76	=76	=76	=76	=76	=76	=76
!LO:TX:t=P:problem=mixed beam	!	!	!	!	!	!	!	!	!	!	!
8G\L	.	4r	4r	16G\	gra-	16G/	gra-	16d\	gra-	16b\	gra-
.	.	.	.	16G\	-ti-	16G/	-ti-	16d\	-ti-	16b\	-ti-
8G\	.	.	.	8G\	-a	8G/	-a	8d,\	-a	8b\	-a
*	*	*	*	*	*	*	*	*	*Xij	*	*
!	!	!	!	!	!LO:MO:mod=Vir-	!	!LO:MO:mod=Vir-	!LO:LB:g=original	!	!LO:LB:g=original	!LO:MO:mod=Vir-
8BB/	.	8dd\L	8gg\L	8BB/	vir-	8B\	vir-	8g\	Vir-	8dd\	vir-
8BB/J	.	8dd\J	8gg\J	8BB/	-go	8d\	-go	8g\	-go	8dd\	-go
!	!	!	!	!LO:SIC:s=8C	!	!LO:LB:g=original	!	!	!LO:MO:mod=sin-	!	!LO:MO:mod=sin-
8C/L	.	16ee\LL	8gg\L	8D/	sin-	8e\	sin-	8g\	Sin-	8cc\	Sin-
.	.	16dd\	.	.	.	.	.	.	.	.	.
!	!	!	!	!	!	!LO:TX:t=P:problem=dźwięk nieczytelny	!	!	!	!	!
!	!	!LO:SIC:s=16cc	!	!LO:SIC:s=8C	!	!LO:SIC:s=8e	!	!	!	!	!
8C/J	.	16cc#\	8gg\J	8C#/	-gu-	8ryy	-gu-	8g\	-gu-	8b\	-gu-
.	.	16b\JJ	.	.	.	.	.	.	.	.	.
4D/	.	8a/L	4ff#\	4D/	-la-	4d\	-la-	(>8g\L	-la-	4a\	-la-
.	.	8a/J	.	.	.	.	.	8f#\J)	.	.	.
=77	=77	=77	=77	=77	=77	=77	=77	=77	=77	=77	=77
!	!	!LO:TX:b:Bi:t=Verte Citisſimo:mod=	!	!	!	!	!	!	!	!	!
4GG/	.	8b\L	8gg\L	4GG/	-ris	4B\	-ris	4g\	-ris	4g/	-ris
.	.	8ff#\	8aa\	.	.	.	.	.	.	.	.
8r	.	8ff#\	8aa\	8r	.	8r	.	8r	.	8r	.
!	!	!	!	!LO:PB:g=original	!	!	!	!	!	!	!
8AA/	.	8cc#X\J	8ee\J	8AA/	in	8c#X\	in	8e\	in	8a\	in
8D/L	.	4dd\	4ff#\	8D/	te	8d\	te	8f#\	te	8a\	te
8D/	.	.	.	8D/	est	8A\	est	8f#\	est	8a\	eſt
8D/	.	4r	4r	8D/	om-	8d\	om-	8f#\	om-	8a\	om-
8C#X/J	6	.	.	8C#X/	-nis	8e\	-nis	8e\	-nis	8a\	-nis
!	!	!LO:PB:g=original	!	!	!	!	!	!	!	!	!
=78	=78	=78	=78	=78	=78	=78	=78	=78	=78	=78	=78
4D/	.	8dd\L	8ff#\L	16D/	gra-	16d\	gra-	16f#\	gra-	16a\	gra-
.	.	.	.	16D/	-ti-	16d\	-ti-	16f#\	-ti-	16a\	-ti-
.	.	8ff#\	8aa\	8D/	-a	8d\	-a	8f#\	-a	8a\	-a
8r	.	8ff#\	8aa\	8r	.	8r	.	8r	.	8r	.
*	*	*	*	*	*ij	*	*	*	*	*	*
8AA/	.	8cc#X\J	8ee\J	8AA/	in	8c#X\	in	8e\	in	8a\	in
8D/L	.	4dd\	4ff#\	8D/	te	8d\	te	8f#\	te	8a\	te
8D/	.	.	.	8D/	est	8A\	est	8f#\	eſt	8a\	eſt
8D/	.	4r	4r	8D/	om-	8d\	om-	8f#\	om-	8a\	om-
8C#X/J	.	.	.	8C#X/	-nis	8e\	-nis	8e\	-nis	8a\	-nis
!	!	!	!LO:LB:g=original	!	!	!	!	!	!	!LO:LB:g=original	!
=79	=79	=79	=79	=79	=79	=79	=79	=79	=79	=79	=79
8D\L	.	4r	4r	16D/	gra-	16d\	gra-	16f#\	gra-	16a\	gra-
.	.	.	.	16D/	-ti-	16d\	-ti-	16f#\	-ti-	16a\	-ti-
!	!	!	!	!LO:MO:mod=!null:null	!	!	!	!	!	!	!
!	!	!	!	!LO:N:vis=16	!	!	!	!	!	!	!
8D\	.	.	.	8D,/	-a	8d\	-a	8f#,\	-a	8a\	-a
*	*	*	*	*	*Xij	*	*	*	*	*	*
!	!	!	!	!	!	!	!	!LO:LB:g=original	!LO:MO:mod=Vir-	!	!
8F#\	6	8dd\L	8aa\L	8F#\	vir-	8A\	Vir-	8d\	vir-	8a\	Vir-
8F#\J	.	8ff#\J	8aa\J	8F#\	-go	8d\	-go	8d\	-go	8a\	-go
!LO:TX:t=P:problem=mixed beam	!	!	!	!	!	!	!	!	!	!	!LO:MO:mod=sin-
8G\L	.	8gg\L	16bb\LL	8G\	sin-	8d\	sin-	8d\	sin-	8b\	Sin-
.	.	.	16aa\	.	.	.	.	.	.	.	.
8G\	.	8b\J	16gg\	8G\	-gu-	8f#\	-gu-	8d\	-gu-	8b\	-gu-
.	.	.	16ff#\JJ	.	.	.	.	.	.	.	.
!	!	!	!	!	!	!	!	!	!	!LO:SIC:s=4a	!
8A\	.	8.cc#X\L	16ee\LL	4A\	-la-	4e\	-la-	4c#X\	-la-	4a\|	-la-
.	.	.	16gg\	.	.	.	.	.	.	.	.
8AA/J	4	.	16ff#\	.	.	.	.	.	.	.	.
.	3	16cc#\Jk	16ee\JJ	.	.	.	.	.	.	.	.
!	!	!	!	!	!	!LO:TX:a:t=vi:mod=	!	!	!	!	!
!	!	!	!	!	!	!LO:LB:g=original	!	!	!	!	!
=80	=80	=80	=80	=80	=80	=80	=80	=80	=80	=80	=80
!	!	!	!	!	!	!LO:TX:a:t=de:mod=	!	!	!	!	!
!	!	!LO:TX:t=P:problem=mixed beam	!	!	!LO:TX:t=P:problem=przed 'de' skreślony takt	!	!	!	!	!	!
4D/	.	8dd\L	8dd\L	4D/	-ris	4d\	-ris	4d\	-ris	4a\	-ris
.	.	8g/	8dd\	.	.	.	.	.	.	.	.
8r	.	8g/	8dd\	8r	.	8r	.	8r	.	8r	.
8D/	.	8f#/J	8a\J	8D/	in	8d\	in	8d\	in	8a\	in
8G\L	.	4g/	4b\	8G\	te	8B\	te	8d\	te	8b\	te
8G\	.	.	.	8G\	est	8B\	eſt	8d\	eſt	8b\	eſt
8G\	.	4r	4r	8G\	om-	8B\	om-	8d\	om-	8b\	om-
8F#\J	6	.	.	8F#\	-nis	8A\	-nis	8d\	-nis	8a\	-nis
!LO:LB:g=original	!	!	!	!	!	!	!	!	!	!	!
=81	=81	=81	=81	=81	=81	=81	=81	=81	=81	=81	=81
4G\	.	8d/L	8b\L	16G\	gra-	16G/	gra-	16d\	gra-	16b\	gra-
.	.	.	.	16G\	-ti-	16G/	-ti-	16d\	-ti-	16b\	-ti-
.	.	8g/	8dd\	8G\	-a	8G/	-a	8d\	-a	8b\	-a
!	!	!	!	!LO:LB:g=original	!	!	!	!	!	!	!
!	!	!	!	!LO:TX:t=P:problem=brak pauzy 8r	!	!	!	!	!	!	!
8r	.	8g/	8dd\	8ryy	.	8r	.	8r	.	8r	.
8D\	.	8f#/J	8a\J	8D/	in	8d\	in	8d\	in	8a\	in
8G\L	.	4g/	4b\	8G\	te	8B\	te	8d\	te	8b\	te
*	*	*	*	*	*	*	*	*	*	*custos:b	*
!	!	!	!	!	!	!	!	!	!	!LO:LB:g=original	!
8G\	.	.	.	8G\	eſt	8B\	est	8d\	eſt	8b\	eſt
8G\	.	4r	4r	8G\	om-	8B\	om-	8d\	om-	8b\	om-
8F#\J	6	.	.	8F#\	-nis	8A\	-nis	8d\	-nis	8a\	-nis
=82	=82	=82	=82	=82	=82	=82	=82	=82	=82	=82	=82
!LO:TX:t=P:problem=mixed beam	!	!	!	!	!	!	!	!	!	!	!
8G\L	.	4r	4r	16G\	gra-	16G/	gra-	16d\	gra-	16b\	gra-
.	.	.	.	16G\	-ti-	16G/	-ti-	16d\	-ti-	16b\	-ti-
8G\	.	.	.	8G\	-a	8G/	-a	8d\	-a	8b\	-a
!	!	!	!	!	!LO:MO:mod=Vir-	!	!LO:MO:mod=Vir-	!	!	!	!
8BB/	.	8dd\L	8gg\L	8BB/	vir-	8B\	vir-	8g\	Vir-	8dd\	Vir-
!	!	!	!	!	!	!LO:LB:g=original	!	!LO:LB:g=original	!	!	!
8BB/J	.	8dd\J	8gg\J	8BB/	-go	8d\	-go	8g\	-go	8dd\	-go
!	!	!	!	!LO:SIC:s=8C	!	!	!LO:MO:mod=sin-	!	!LO:MO:mod=sin-	!	!LO:MO:mod=sin-
8C/L	.	8ee\L	8gg\L	8C#/	sin-	8e\	Sin-	8g\	Sin-	8cc\	Sin-
!	!	!LO:SIC:s=8cc	!	!LO:SIC:s=8C	!	!	!	!	!	!	!
8C/J	.	8cc#\J	8gg\J	8C#/	-gu-	8e\	-gu-	8g\	-gu-	8b\	-gu-
4D/	.	8dd\L	4ff#\	4D/	-la-	4d\	-la-	4f#\	-la-	4a\	-la-
.	.	8a\J	.	.	.	.	.	.	.	.	.
=83	=83	=83	=83	=83	=83	=83	=83	=83	=83	=83	=83
!	!	!	!	!	!	!	!	!LO:MO:mod=!null:null	!	!	!
!	!	!	!	!	!	!	!	!LO:N:vis=8	!	!	!
4GG/	.	4b\	4gg\	4GG/	-ris	4B\	-ris	4g\	-ris	4g/	-ris
!	!	!	!	!	!LO:MO:mod=Vir-	!	!	!	!	!	!
8BB/L	.	8dd\L	8gg\L	8BB/	vir-	8B\	Vir-	8g\	Vir-	8dd\	Vir-
8BB/J	.	8dd\J	8gg\J	8BB/	-go	8d\	-go	8g\	-go	8dd\	-go
!	!	!	!	!LO:SIC:s=8C	!	!	!	!	!LO:MO:mod=sin-	!	!
8C/L	.	8ee\L	8gg\L	8C#/	sin-	8e\	sin-	8g\	Sin-	8cc\	sin-
!	!	!LO:SIC:s=8cc	!	!LO:SIC:s=8C	!	!	!	!	!	!	!
8C/J	.	8cc#\J	8gg\J	8C#/	-gu-	8e\	-gu-	8g\	-gu-	8b\	-gu-
4D/	.	8dd\L	4ff#\	4D/	-la-	4d\	-la-	4f#\	-la-	4a/	-la-
.	.	8a\J	.	.	.	.	.	.	.	.	.
!	!	!LO:TX:b:Bi:t=Finiſ:mod=	!	!	!	!	!	!	!	!	!
=84	=84	=84	=84	=84	=84	=84	=84	=84	=84	=84	=84
4GG/	.	4b\	4gg\	4GG/	-ris	4B\	-ris	4g\	-ris	4g/	-ris
4r	.	4r	4r	4r	.	4r	.	4r	.	4r	.
2r	.	2r	2r	2r	.	2r	.	2r	.	2r	.
==	==	==	==	==	==	==	==	==	==	==	==
*-	*-	*-	*-	*-	*-	*-	*-	*-	*-	*-	*-
!!!system-decoration: [(g1)][(g2)]<s7>
!!!RDF**kern: > = above
!!!RDF**kern: < = below
!!!RDF**kern: | = vertical stroke
!!!filter-modern: shed -e "s/:TX:t=P:/:tx:t=p:/L" | shed -e "s/,//gk" | sic -sq | modori -m | autostem -r | tie -s | humtr -p | shed -e "s/yy//" | shed -k -e "s/[<>]//g" | shed -e "s/^custos:/Xcustos:/I"
!!!ENC: Krzysztof Stępień
!!!END: 2020-04-20
!!!ENC: Wojciech Jakubiak-Danek
!!!END: 2020-11-04
!!!ENC-modern: Andrzej Kubiczek
!!!END-modern: 2022-06-21
!!!YEC: Copyright 2022 Narodowy Instytut Fryderyka Chopina (https://polishscores.org)
!!!YEM: License CC-BY-4.0 (https://creativecommons.org/licenses/by/4.0)
